twotone/svg/tonality.svg

<svg xmlns="http://www.w3.org/2000/svg" width="24" height="24"><path fill="none" d="M0 0h24v24H0V0z"/><g fill="currentColor"><path opacity=".3" d="M4 12c0 4.08 3.06 7.44 7 7.93V4.07C7.05 4.56 4 7.92 4 12z"/><path d="M12 2C6.48 2 2 6.48 2 12s4.48 10 10 10 10-4.48 10-10S17.52 2 12 2zm-1 17.93c-3.94-.49-7-3.85-7-7.93s3.05-7.44 7-7.93v15.86zm2-15.86c1.03.13 2 .45 2.87.93H13v-.93zM13 7h5.24c.25.31.48.65.68 1H13V7zm0 3h6.74c.08.33.15.66.19 1H13v-1zm0 9.93V19h2.87c-.87.48-1.84.8-2.87.93zM18.24 17H13v-1h5.92c-.2.35-.43.69-.68 1zm1.5-3H13v-1h6.93c-.04.34-.11.67-.19 1z"/></g></svg>

<?xml version="1.0" encoding="utf-8"?>
<!-- Generator: Adobe Illustrator 19.1.0, SVG Export Plug-In . SVG Version: 6.00 Build 0)  -->
<svg version="1.1" xmlns="http://www.w3.org/2000/svg" xmlns:xlink="http://www.w3.org/1999/xlink" x="0px" y="0px" width="24px"
	 height="24px" viewBox="0 0 24 24" enable-background="new 0 0 24 24" xml:space="preserve">
<g id="Bounding_Boxes">
	<g id="ui_x5F_spec_x5F_header_copy_2">
	</g>
	<path fill="none" d="M0,0h24v24H0V0z"/>
</g>
<g id="Duotone" fill="currentColor">
	<g id="ui_x5F_spec_x5F_header_copy_3">
	</g>
	<g>
		<path opacity="0.3" d="M4,12c0,4.08,3.06,7.44,7,7.93V4.07C7.05,4.56,4,7.92,4,12z"/>
		<path d="M12,2C6.48,2,2,6.48,2,12c0,5.52,4.48,10,10,10s10-4.48,10-10C22,6.48,17.52,2,12,2z M11,19.93C7.06,19.44,4,16.08,4,12
			c0-4.08,3.05-7.44,7-7.93V19.93z M13,4.07C14.03,4.2,15,4.52,15.87,5H13V4.07z M13,7h5.24c0.25,0.31,0.48,0.65,0.68,1H13V7z
			 M13,10h6.74c0.08,0.33,0.15,0.66,0.19,1H13V10z M13,19.93V19h2.87C15,19.48,14.03,19.8,13,19.93z M18.24,17H13v-1h5.92
			C18.72,16.35,18.49,16.69,18.24,17z M19.74,14H13v-1h6.93C19.89,13.34,19.82,13.67,19.74,14z"/>
	</g>
</g>
</svg>
